X: 14
T:The Forester
M:4/4
L:1/8
K:D
"A"  FA | dcde d2 FG | ABAF D2 Bc | dcde fede | fee^d e2 fe | dc
de dAFG | ABAF D2 FG | ABAG FAde | fdec d2 ||
"B" AG | FAdA FAdA | B2 G2 G2 BA | ^GBeB ^GBeB |c2 A2 A2 AG | F2 d2 d2 e
d | BABc d3 f | gfed cABc | d2 d2 d2 :||
